X: 178
T:Up Goes Ely
M:9/8
L:1/8
Q:140
A:England
K:D
d/c/ | d2d F2G A2A | d2d c2d e>fe | d2d F2g A>BA | B2G G2E G2 :|
|: F | D2A A2F A2F | D2A A2B =c3  | D2A A2F A>Bc | d2A F2E D2 :|
